X:9532
T:Les Poules Huppees - bourree
C:Gilles Chabenat
N:abc transcription Simon Wascher
N:if you find an error in this transcription please inform simon.wascher@chello.at
M:3/8
L:1/16
K:Ddorian
D2DFED|A4AB|cBAdcB|cBABAG|
D3FED|A4AB|cBAdcd|1A6:|2A4de||
K:Dm
|:f2AfAe|B4de|fdgfed|_d2=d2e2|
f2AfAe|B4de|fdgfe_d|1d4de:|2d6|]


